dist/icons/svgs/user-outline.svg

<svg xmlns="http://www.w3.org/2000/svg" width="24" height="24" fill="currentcolor" class="icon-user-outline" viewBox="0 0 24 24">
  <path d="M15.125 7C15.125 5.90625 14.5 4.89062 13.5625 4.30469C12.5859 3.75781 11.375 3.75781 10.4375 4.30469C9.46094 4.89062 8.875 5.90625 8.875 7C8.875 8.13281 9.46094 9.14844 10.4375 9.73438C11.375 10.2812 12.5859 10.2812 13.5625 9.73438C14.5 9.14844 15.125 8.13281 15.125 7ZM7 7C7 5.24219 7.9375 3.60156 9.5 2.70312C11.0234 1.80469 12.9375 1.80469 14.5 2.70312C16.0234 3.60156 17 5.24219 17 7C17 8.79688 16.0234 10.4375 14.5 11.3359C12.9375 12.2344 11.0234 12.2344 9.5 11.3359C7.9375 10.4375 7 8.79688 7 7ZM5.16406 20.125H18.7969C18.4453 17.6641 16.3359 15.75 13.7578 15.75H10.2031C7.625 15.75 5.51562 17.6641 5.16406 20.125ZM3.25 20.8672C3.25 17 6.33594 13.875 10.2031 13.875H13.7578C17.625 13.875 20.75 17 20.75 20.8672C20.75 21.4922 20.2031 22 19.5781 22H4.38281C3.75781 22 3.25 21.4922 3.25 20.8672Z"/>
</svg>

<svg xmlns="http://www.w3.org/2000/svg" width="24" height="24" fill="currentColor" class="icon-user-outline" viewBox="0 0 24 24">
  <path d="M15.125 7c0-1.094-.625-2.11-1.562-2.695-.977-.547-2.188-.547-3.126 0C9.462 4.89 8.876 5.906 8.876 7c0 1.133.586 2.148 1.563 2.734.937.547 2.148.547 3.124 0C14.5 9.148 15.126 8.133 15.126 7M7 7c0-1.758.938-3.398 2.5-4.297 1.523-.898 3.438-.898 5 0C16.023 3.602 17 5.243 17 7c0 1.797-.977 3.438-2.5 4.336-1.562.898-3.477.898-5 0A4.97 4.97 0 0 1 7 7M5.164 20.125h13.633c-.352-2.46-2.461-4.375-5.04-4.375h-3.554c-2.578 0-4.687 1.914-5.039 4.375m-1.914.742c0-3.867 3.086-6.992 6.953-6.992h3.555a6.985 6.985 0 0 1 6.992 6.992c0 .625-.547 1.133-1.172 1.133H4.383a1.134 1.134 0 0 1-1.133-1.133"/>
</svg>
